X:119
M:C|
L:1/8
K:D
|:f|abaf defd|ebba beef|1 abaf defe|dBAF ADD:|2 abef dgfe|
dBAF ADD||

